X: 19406
T: Jackie Daly's
R: slide
M: 12/8
K: Gmajor
A|B z d ~B2 G D3 ~G2 A|B z d {/c}BAB !slide!c3 c2 d|
e z g gfe deG ~B2d|c z A F2A {/F}G2d ~e2d|
{/A}B3 {/c}BAG D2E ~G2A|B z d {/c}BAB c3 c2 d|
e z {/f}g {/a}gfe deG ~B2d|c z A F2A {/F}G3 {/A}GBd|
e z g {/a}gfe ~d2g ~b2g|e z c (3gage d2{/a}g {/e}f2{/a}g|
e2{/f}g {/a}gfe dcB ~G2B|c z A F2A {/F}G3 GBd|
e z g {/a}gfe d2g ~b2g|e2c (3gage d2{/a}g {/e}f2{/a}g|
e z g {/a}gfe dcB {/F}G2B|c z A F2A {/F}G2d ~e2d|
{/A}B3 {/c}BAG D2E ~G2A|B z d {/c}BAB !slide!c3 c2 d|
e z g gfe d2G {/A}B2d|c z A F2A {/F}G2d ~e2d|
B z B {/c}BAG D2E ~G2A|B z d {/c}BAB c3 c2 d|
e z {/f}g {/a}gfe ~d2g {/A}B2d|c z A F2A {/F}G3 {/A}GBd|
e z g {/a}gfe ~d2g ~b2g|e z c (3gage d2{/a}g {/e}f2{/a}g|
e z g {/a}gfe dcB {/F}G2B|c z A F2A {/F}G3 {/A}GBd|
e z g {/a}gfe d2g ~b2g|e z c (3gage d2{/a}g {/e}f2{/a}g|
e z {/f}g {/a}gfe d2B GAB|c z A FGA {/F}G3 G2||

